svg/u1f3bf.svg

<svg viewBox="0 0 128 128" xmlns="http://www.w3.org/2000/svg">
  <g>
    <linearGradient id="SVGID_1_" gradientUnits="userSpaceOnUse" x1="64" x2="64" y1="120.9745" y2="62.9665">
      <stop offset="0" stop-color="#FFFFFF"/>
      <stop offset="1" stop-color="#DEE0E1"/>
    </linearGradient>
    <path d="M124,124H4V59.37c55.03,19.34,88.6-9.45,120,0V124z" fill="url(#SVGID_1_)"/>
    <linearGradient id="SVGID_2_" gradientUnits="userSpaceOnUse" x1="63.1118" x2="67.3555" y1="103.6739" y2="46.384">
      <stop offset="0.0706" stop-color="#B9E4EA" stop-opacity="0"/>
      <stop offset="1" stop-color="#B9E4EA"/>
    </linearGradient>
    <path d="M124,124H4V59.37c55.03,19.34,88.6-9.45,120,0V124z" fill="url(#SVGID_2_)"/>
    <linearGradient id="SVGID_3_" gradientUnits="userSpaceOnUse" x1="122.1008" x2="-3.6272" y1="104.4523" y2="104.4523">
      <stop offset="0" stop-color="#FFFFFF" stop-opacity="0"/>
      <stop offset="0" stop-color="#9E9E9E"/>
      <stop offset="0.8546" stop-color="#9E9E9E" stop-opacity="0.1454"/>
      <stop offset="1" stop-color="#9E9E9E" stop-opacity="0"/>
    </linearGradient>
    <path d="M124,106.56c0,0-103.43,2.72-112.12,0c-8.69-2.72-1.08-3.92,8.69-4.05S124,101.13,124,101.13 V106.56z" fill="url(#SVGID_3_)"/>
    <g>
      <path d="M73.16,42.11c0,0,7.13-5.11,14.96-7.53s12.55-1.84,12.08-0.57c-0.47,1.26-20.1,13.6-20.56,13.69 s-6.52,0.14-6.47,0C73.2,47.56,73.16,42.11,73.16,42.11z" fill="#1976D2"/>
      <g>
        <path d="M25.76,93.96c0,0-6.85-0.73-10.45-5.36c-2.41-3.1-5.43-1.24-4.78,1.9 c0.65,3.15,5.51,14.7,20.05,14.7c13.83,0,86.31,0,93.42,0V93.96H25.76z" fill="#82AEC0"/>
        <path d="M32.26,103.07c-14.54,0-19.4-11.56-20.05-14.7c-0.1-0.46-0.1-0.89-0.05-1.29 c-1.2,0.3-1.87,2.81-1.63,4.6c0.69,5.09,5.51,14.7,20.05,14.7c13.83,0,86.31,0,93.42,0v-3.31 C111.01,103.07,45.35,103.07,32.26,103.07z" fill="#2F7889"/>
      </g>
      <path d="M105.46,69.8c0,0,1.99,6.61,1.34,15.75c-0.7,9.85-1.68,12.68-1.68,12.68H48.36l1.72-3.21 c0,0-0.27-6.36-0.11-7.5c0.42-3.06,1.8-5.35,5.28-6.62c3.72-1.36,16.91-6.95,18.92-8.37c2-1.42,2.9-3.92,2.9-3.92L105.46,69.8z" fill="#1976D2"/>
      <path d="M74.97,83.91c-0.02-0.03-1.53-3.29-3.03-6.28c-1-2-2.52-2.64-2.54-2.65l-0.13-0.78l4.45-2.35 c0.42-0.2,0.92-0.11,1.24,0.23c0.77,0.78,1.52,1.77,2.13,2.99c1.53,3.06,3.03,6.29,3.1,6.43L74.97,83.91z" fill="#BDBDBD"/>
      <path d="M75.56,82.42l-3.04-5.58c-0.7-1.12-1.51-1.87-2.32-2.37c-0.45-0.28-0.92-0.27-0.92-0.27l-0.03,0.8 c0.25,0,0.58,0.25,0.58,0.25c0.64,0.43,1.53,1.18,2.13,2.39c1.49,2.99,3.01,6.25,3.03,6.28l5.22-2.43c-0.02-0.04-0.19-0.42-0.47-1 L75.56,82.42z" fill="#757575"/>
      <path d="M79.89,85.44c1.49-0.97,1.89-2.98,1.07-4.55c-0.77-1.47-1.55-2.86-2.62-5.05 c-0.28-0.57-0.99-0.8-1.54-0.48l-0.24,0.13c-0.5,0.28-0.64,0.93-0.4,1.45c0.85,1.85,1.72,3.43,1.73,3.45 c0.22,0.4,0.34,1.02-0.39,1.41c-0.57,0.3-1.17,0.1-1.5-0.49c-0.05-0.09-0.8-1.47-1.61-3.24c-0.26-0.56-0.98-0.83-1.54-0.58l0,0 c-0.57,0.26-0.8,0.94-0.53,1.5c1.11,2.26,1.89,3.65,2.69,5.18C75.95,85.93,78.2,86.54,79.89,85.44z" fill="#212121"/>
      <path d="M65.31,88.17c-0.01-0.03-1.29-3.39-2.57-6.48c-0.85-2.06-2.32-2.82-2.34-2.83l-0.08-0.79 l4.61-2.03c0.43-0.16,0.92-0.04,1.22,0.32c0.71,0.84,1.39,1.87,1.91,3.13c1.31,3.17,2.57,6.49,2.63,6.63L65.31,88.17z" fill="#BDBDBD"/>
      <path d="M66.01,86.73l-2.63-5.78c-0.62-1.17-1.37-1.97-2.15-2.53c-0.43-0.31-0.9-0.34-0.9-0.34l-0.09,0.79 c0.25,0.02,0.56,0.29,0.56,0.29c0.61,0.48,1.44,1.29,1.95,2.53c1.27,3.09,2.55,6.45,2.57,6.48l5.38-2.05 c-0.02-0.05-0.16-0.43-0.39-1.03L66.01,86.73z" fill="#757575"/>
      <path d="M69.92,89.74c1.55-0.86,2.1-2.83,1.39-4.46c-0.67-1.52-1.33-2.97-2.25-5.23 c-0.24-0.59-0.93-0.86-1.5-0.59l-0.24,0.12c-0.52,0.25-0.69,0.78-0.49,1.32c0.71,1.9,1.47,3.54,1.48,3.56 c0.19,0.41,0.26,1.04-0.49,1.38c-0.59,0.26-1.18,0.01-1.46-0.6c-0.04-0.1-0.69-1.53-1.37-3.35c-0.21-0.58-0.93-0.8-1.5-0.59v0 c-0.58,0.22-0.87,0.88-0.64,1.46c0.94,2.33,1.62,3.77,2.31,5.36C65.95,89.96,68.15,90.73,69.92,89.74z" fill="#212121"/>
      <rect height="4.25" opacity="0.7" fill="#0D47A1" width="43.94" x="60.33" y="93.98"/>
      <path d="M97.44,98.23c0,0,0.29-5.45,3.5-7.81c3.21-2.35,5.99-2.07,5.99-2.07s1.05-1.98,4.35-5.22 c1.9-1.87,3.76-2.9,5.1-3.45c0.85-0.35,1.72,0.47,1.43,1.34l-5.62,17.21H97.44z" fill="#212121"/>
      <path d="M39.73,98.23c0,0,2.28-4.17,4.88-6.69c1.76-1.7,4.73-2.6,6.65-0.88L54,93.23 c1.17,1.05,2.66,0.89,3.58-0.38l0.38-0.52c0.62-0.86,1.88-1.01,2.64-0.28c0.43,0.42,0.82,0.96,0.96,1.63 c0.39,1.85,0.31,4.55,0.31,4.55H39.73z" fill="#212121"/>
      <path d="M92.05,98.23c-1.83-1.73-5.86-2.93-10.55-2.93s-8.72,1.2-10.55,2.93H92.05z" fill="#212121"/>
      <path d="M73.16,42.11l-1.35,1.62l4.13,26.48c0,0,1.49,1.49,4.68,1.91c3.44,0.46,7.04,3.29,9.26,5.66 c2.22,2.37,4.29,4.29,8.65,3.29c4.36-1,6.2-4.67,7.35-7.27s1.53-4.98,1.53-4.98l-4.98-33.37c0,0-0.93-2.88-4.98-1.76 c-6.35,1.76-11.76,6.58-15.18,8.63C75.24,46.54,73.16,42.11,73.16,42.11z" fill="#5FB2DE"/>
      <path d="M78.64,60.84c-1.46,0.01-2.89-0.06-4.32-0.23c-0.92-0.11-1.26-1.26-1.26-1.26l-0.49-4.29 c0,0,0.66-0.43,0.93-0.38c3.77,0.65,7.44,0.45,12.03-0.1c7.44-0.88,13.11-2.04,13.16-2.05l1.16,5.64 c-0.24,0.05-5.94,1.22-13.65,2.13C83.52,60.62,81.04,60.83,78.64,60.84z" fill="#9E9E9E"/>
      <path d="M85.53,55.29c7.44-0.88,13.11-2.04,13.16-2.05l1.02,4.96c0.07-0.01,0.12-0.02,0.14-0.03l-1.16-5.64 c-0.06,0.01-5.72,1.17-13.16,2.05c-4.59,0.54-8.26,0.75-12.03,0.1c-0.26-0.05-0.93,0.38-0.93,0.38l0.01,0.05 C76.59,56.07,81.21,55.8,85.53,55.29z" fill="#E0E0E0"/>
      <path d="M73.87,43.81c0,0-1.44-4.52-0.83-5.66C73.65,37,76.03,35.7,79.55,37c3.52,1.3,4.9,3.52,4.9,3.52 s-2.75,2.83-5.78,3.6C75.64,44.88,73.87,43.81,73.87,43.81z" fill="#424242"/>
      <path d="M70.95,45.4c0,0-0.07-0.28,0.01-0.54c0,0,5.66,0.98,16.55-0.46c7.79-1.03,14.42-3.77,16.53-4.51 l0.12,0.51l1.04,6.43c0.08,0.51-0.22,1-0.72,1.16c-2.04,0.63-7.88,2.34-16.25,3.41c-7.79,1-13.25,0.83-15.18,0.77 c-0.49-0.01-0.89-0.36-0.99-0.84L70.95,45.4z" fill="#424242"/>
      <path d="M88.89,51.3c0.58-0.71,1.05-1.83,1.03-3.59c-0.01-1.66-0.94-2.7-2.09-3.36 c-0.11,0.02-0.22,0.03-0.33,0.05c-10.89,1.45-16.55,0.46-16.55,0.46c-0.07,0.26-0.01,0.54-0.01,0.54l1.12,5.92 c0.09,0.48,0.5,0.83,0.99,0.84c1.93,0.05,7.39,0.23,15.18-0.78C88.46,51.36,88.67,51.33,88.89,51.3z" fill="#616161"/>
      <path d="M71.64,45.64c0.65,0.09,3.46,0.8,16.32-0.91c9.82-1.3,15.96-4.21,15.96-4.21s0.43-0.48-0.22-1.2 c-0.26-0.28-0.74-0.26-0.74-0.26l0.1,0.54c-0.11,0.05-5.97,2.78-15.34,4.02c-6.52,0.87-10.63,1.05-12.93,1.05 c-2.33,0-2.93-0.15-2.93-0.15l-0.06-0.59c-0.34,0.24-0.68,0.34-0.81,0.77C70.86,45.11,71,45.55,71.64,45.64z" fill="#9E9E9E"/>
      <path d="M86.81,51.55c1.16-0.14,2.49-0.8,2.67-2.88c0.13-1.53-0.52-2.58-1.04-3.01 c-1.03-0.85-2.86-0.63-2.87-0.63l-0.16-1.13c0.1-0.01,2.53-0.42,3.94,0.79c0.87,0.75,1.38,1.77,1.46,3.11 c0.1,1.56-0.36,2.41-1.2,3.08C88.48,51.79,86.81,51.55,86.81,51.55z" fill="#9E9E9E"/>
      <path d="M100.79,54.64c-0.48-1.71-2.27-2.71-4.01-2.39c-1.64,0.29-3.2,0.61-5.61,0.97 c-0.63,0.09-1.06,0.7-0.93,1.32l0.06,0.26c0.12,0.56,0.65,0.94,1.22,0.87c2.02-0.25,3.78-0.6,3.81-0.61 c0.45-0.09,1.08-0.01,1.23,0.8c0.12,0.63-0.26,1.15-0.92,1.28c-0.1,0.02-1.64,0.31-3.57,0.55c-0.61,0.07-1.04,0.63-0.97,1.24l0,0 c0.08,0.62,0.65,1.05,1.27,0.96c2.48-0.37,4.05-0.69,5.75-1C100.08,58.55,101.34,56.59,100.79,54.64z" fill="#212121"/>
      <path d="M80,69.82c-1.46,0.01-2.89-0.06-4.32-0.23c-0.92-0.11-1.26-1.26-1.26-1.26l-0.49-4.29 c0,0,0.66-0.43,0.93-0.38c3.77,0.65,7.44,0.45,12.03-0.1c7.44-0.88,13.11-2.04,13.16-2.05l1.16,5.64 c-0.24,0.05-5.94,1.22-13.65,2.13C84.89,69.6,82.41,69.81,80,69.82z" fill="#9E9E9E"/>
      <path d="M86.89,64.27c7.44-0.88,13.11-2.04,13.16-2.05l1.02,4.96c0.07-0.01,0.12-0.02,0.14-0.03l-1.16-5.64 c-0.06,0.01-5.72,1.17-13.16,2.05c-4.59,0.54-8.26,0.75-12.03,0.1c-0.26-0.05-0.93,0.38-0.93,0.38l0.01,0.05 C77.96,65.05,82.58,64.79,86.89,64.27z" fill="#E0E0E0"/>
      <path d="M102.16,63.63c-0.48-1.71-2.27-2.71-4.01-2.39c-1.64,0.29-3.2,0.61-5.61,0.97 c-0.63,0.09-1.06,0.7-0.93,1.32l0.06,0.26c0.12,0.56,0.65,0.94,1.22,0.87c2.02-0.25,3.78-0.6,3.81-0.61 c0.45-0.09,1.08-0.01,1.23,0.8c0.12,0.63-0.26,1.15-0.92,1.28c-0.1,0.02-1.64,0.31-3.57,0.55c-0.61,0.07-1.04,0.63-0.97,1.24l0,0 c0.08,0.62,0.65,1.05,1.27,0.96c2.48-0.37,4.05-0.69,5.75-1C101.44,67.53,102.7,65.58,102.16,63.63z" fill="#212121"/>
      <circle cx="97.67" cy="74.58" r="2.53" fill="#616161"/>
      <path d="M79.55,37c-3.52-1.3-5.89,0-6.51,1.15c-0.08,0.15-0.12,0.35-0.14,0.58 c1.02-0.81,2.45-0.98,3.72-0.7c1.32,0.29,2.51,1.01,3.61,1.78c0.93,0.66,1.84,1.36,2.82,1.94c0.86-0.68,1.39-1.23,1.39-1.23 S83.07,38.3,79.55,37z" fill="#616161"/>
    </g>
    <linearGradient id="SVGID_4_" gradientUnits="userSpaceOnUse" x1="78.6667" x2="78.6667" y1="113.4222" y2="101.2518">
      <stop offset="0" stop-color="#FFFFFF" stop-opacity="0"/>
      <stop offset="0.491" stop-color="#FFFFFF"/>
      <stop offset="1" stop-color="#B9E4EA"/>
    </linearGradient>
    <path d="M46.79,111.81c17.11-1.67,17.73-10.88,30.53-10.86c2.51,0,4.42,0.56,5.8,1.22 c2.12,1.01,4.54,1.11,6.73,0.27c1.81-0.69,4.04-1.32,6.25-1.32c9.83-0.01,14.43,8.58,14.43,8.58" fill="url(#SVGID_4_)"/>
  </g>
</svg>

<svg viewBox="0 0 128 128" xmlns="http://www.w3.org/2000/svg">
  <defs>
    <linearGradient id="SVGID_1_" gradientUnits="userSpaceOnUse" x1="64" x2="64" y1="120.9745" y2="62.9665">
      <stop offset="0" stop-color="#FFFFFF"/>
      <stop offset="1" stop-color="#DEE0E1"/>
    </linearGradient>
    <linearGradient id="SVGID_2_" gradientUnits="userSpaceOnUse" x1="63.1118" x2="67.3555" y1="103.6739" y2="46.384">
      <stop offset="0.0706" stop-color="#B9E4EA" stop-opacity="0"/>
      <stop offset="1" stop-color="#B9E4EA"/>
    </linearGradient>
    <linearGradient id="SVGID_3_" gradientUnits="userSpaceOnUse" x1="122.1008" x2="-3.6272" y1="104.4523" y2="104.4523">
      <stop offset="0" stop-color="#FFFFFF" stop-opacity="0"/>
      <stop offset="0" stop-color="#9E9E9E"/>
      <stop offset="0.8546" stop-color="#9E9E9E" stop-opacity="0.1454"/>
      <stop offset="1" stop-color="#9E9E9E" stop-opacity="0"/>
    </linearGradient>
    <linearGradient id="SVGID_4_" gradientUnits="userSpaceOnUse" x1="78.6667" x2="78.6667" y1="113.4222" y2="101.2518">
      <stop offset="0" stop-color="#FFFFFF" stop-opacity="0"/>
      <stop offset="0.491" stop-color="#FFFFFF"/>
      <stop offset="1" stop-color="#B9E4EA"/>
    </linearGradient>
  </defs>
  <path d="M124,124 L4,124 L4,59.37 C59.03,78.71 92.6,49.92 124,59.37 L124,124 Z" fill="url(#SVGID_1_)"/>
  <path d="M124,124 L4,124 L4,59.37 C59.03,78.71 92.6,49.92 124,59.37 L124,124 Z" fill="url(#SVGID_2_)"/>
  <path d="M124,106.56 C124,106.56 20.57,109.28 11.88,106.56 C3.19,103.84 10.8,102.64 20.57,102.51 C30.34,102.38 124,101.13 124,101.13 L124,106.56 Z" fill="url(#SVGID_3_)"/>
  <path d="M73.16,42.11 C73.16,42.11 80.29,37 88.12,34.58 C95.95,32.16 100.67,32.74 100.2,34.01 C99.73,35.27 80.1,47.61 79.64,47.7 C79.18,47.79 73.12,47.84 73.17,47.7 C73.2,47.56 73.16,42.11 73.16,42.11 Z" fill="#1976D2"/>
  <path d="M25.76,93.96 C25.76,93.96 18.91,93.23 15.31,88.6 C12.9,85.5 9.88,87.36 10.53,90.5 C11.18,93.65 16.04,105.2 30.58,105.2 C44.41,105.2 116.89,105.2 124,105.2 L124,93.96 L25.76,93.96 Z" fill="#82AEC0"/>
  <path d="M32.26,103.07 C17.72,103.07 12.86,91.51 12.21,88.37 C12.11,87.91 12.11,87.48 12.16,87.08 C10.96,87.38 10.29,89.89 10.53,91.68 C11.22,96.77 16.04,106.38 30.58,106.38 C44.41,106.38 116.89,106.38 124,106.38 L124,103.07 C111.01,103.07 45.35,103.07 32.26,103.07 Z" fill="#2F7889"/>
  <path d="M105.46,69.8 C105.46,69.8 107.45,76.41 106.8,85.55 C106.1,95.4 105.12,98.23 105.12,98.23 L48.36,98.23 L50.08,95.02 C50.08,95.02 49.81,88.66 49.97,87.52 C50.39,84.46 51.77,82.17 55.25,80.9 C58.97,79.54 72.16,73.95 74.17,72.53 C76.17,71.11 77.07,68.61 77.07,68.61 L105.46,69.8 Z" fill="#1976D2"/>
  <path d="M74.97,83.91 C74.95,83.88 73.44,80.62 71.94,77.63 C70.94,75.63 69.42,74.99 69.4,74.98 L69.27,74.2 L73.72,71.85 C74.14,71.65 74.64,71.74 74.96,72.08 C75.73,72.86 76.48,73.85 77.09,75.07 C78.62,78.13 80.12,81.36 80.19,81.5 L74.97,83.91 Z" fill="#BDBDBD"/>
  <path d="M75.56,82.42 L72.52,76.84 C71.82,75.72 71.01,74.97 70.2,74.47 C69.75,74.19 69.28,74.2 69.28,74.2 L69.25,75 C69.5,75 69.83,75.25 69.83,75.25 C70.47,75.68 71.36,76.43 71.96,77.64 C73.45,80.63 74.97,83.89 74.99,83.92 L80.21,81.49 C80.19,81.45 80.02,81.07 79.74,80.49 L75.56,82.42 Z" fill="#757575"/>
  <path d="M79.89,85.44 C81.38,84.47 81.78,82.46 80.96,80.89 C80.19,79.42 79.41,78.03 78.34,75.84 C78.06,75.27 77.35,75.04 76.8,75.36 L76.56,75.49 C76.06,75.77 75.92,76.42 76.16,76.94 C77.01,78.79 77.88,80.37 77.89,80.39 C78.11,80.79 78.23,81.41 77.5,81.8 C76.93,82.1 76.33,81.9 76,81.31 C75.95,81.22 75.2,79.84 74.39,78.07 C74.13,77.51 73.41,77.24 72.85,77.49 L72.85,77.49 C72.28,77.75 72.05,78.43 72.32,78.99 C73.43,81.25 74.21,82.64 75.01,84.17 C75.95,85.93 78.2,86.54 79.89,85.44 Z" fill="#212121"/>
  <path d="M65.31,88.17 C65.3,88.14 64.02,84.78 62.74,81.69 C61.89,79.63 60.42,78.87 60.4,78.86 L60.32,78.07 L64.93,76.04 C65.36,75.88 65.85,76 66.15,76.36 C66.86,77.2 67.54,78.23 68.06,79.49 C69.37,82.66 70.63,85.98 70.69,86.12 L65.31,88.17 Z" fill="#BDBDBD"/>
  <path d="M66.01,86.73 L63.38,80.95 C62.76,79.78 62.01,78.98 61.23,78.42 C60.8,78.11 60.33,78.08 60.33,78.08 L60.24,78.87 C60.49,78.89 60.8,79.16 60.8,79.16 C61.41,79.64 62.24,80.45 62.75,81.69 C64.02,84.78 65.3,88.14 65.32,88.17 L70.7,86.12 C70.68,86.07 70.54,85.69 70.31,85.09 L66.01,86.73 Z" fill="#757575"/>
  <path d="M69.92,89.74 C71.47,88.88 72.02,86.91 71.31,85.28 C70.64,83.76 69.98,82.31 69.06,80.05 C68.82,79.46 68.13,79.19 67.56,79.46 L67.32,79.58 C66.8,79.83 66.63,80.36 66.83,80.9 C67.54,82.8 68.3,84.44 68.31,84.46 C68.5,84.87 68.57,85.5 67.82,85.84 C67.23,86.1 66.64,85.85 66.36,85.24 C66.32,85.14 65.67,83.71 64.99,81.89 C64.78,81.31 64.06,81.09 63.49,81.3 L63.49,81.3 C62.91,81.52 62.62,82.18 62.85,82.76 C63.79,85.09 64.47,86.53 65.16,88.12 C65.95,89.96 68.15,90.73 69.92,89.74 Z" fill="#212121"/>
  <path d="M60.33,93.98 L104.27,93.98 L104.27,98.23 L60.33,98.23 L60.33,93.98 Z" fill="#0D47A1" opacity="0.7"/>
  <path d="M97.44,98.23 C97.44,98.23 97.73,92.78 100.94,90.42 C104.15,88.07 106.93,88.35 106.93,88.35 C106.93,88.35 107.98,86.37 111.28,83.13 C113.18,81.26 115.04,80.23 116.38,79.68 C117.23,79.33 118.1,80.15 117.81,81.02 L112.19,98.23 L97.44,98.23 Z" fill="#212121"/>
  <path d="M39.73,98.23 C39.73,98.23 42.01,94.06 44.61,91.54 C46.37,89.84 49.34,88.94 51.26,90.66 L54,93.23 C55.17,94.28 56.66,94.12 57.58,92.85 L57.96,92.33 C58.58,91.47 59.84,91.32 60.6,92.05 C61.03,92.47 61.42,93.01 61.56,93.68 C61.95,95.53 61.87,98.23 61.87,98.23 L39.73,98.23 Z" fill="#212121"/>
  <path d="M92.05,98.23 C90.22,96.5 86.19,95.3 81.5,95.3 C76.81,95.3 72.78,96.5 70.95,98.23 L92.05,98.23 Z" fill="#212121"/>
  <path d="M73.16,42.11 L71.81,43.73 L75.94,70.21 C75.94,70.21 77.43,71.7 80.62,72.12 C84.06,72.58 87.66,75.41 89.88,77.78 C92.1,80.15 94.17,82.07 98.53,81.07 C102.89,80.07 104.73,76.4 105.88,73.8 C107.03,71.2 107.41,68.82 107.41,68.82 L102.43,35.45 C102.43,35.45 101.5,32.57 97.45,33.69 C91.1,35.45 85.69,40.27 82.27,42.32 C75.24,46.54 73.16,42.11 73.16,42.11 Z" fill="#5FB2DE"/>
  <path d="M78.64,60.84 C77.18,60.85 75.75,60.78 74.32,60.61 C73.4,60.5 73.06,59.35 73.06,59.35 L72.57,55.06 C72.57,55.06 73.23,54.63 73.5,54.68 C77.27,55.33 80.94,55.13 85.53,54.58 C92.97,53.7 98.64,52.54 98.69,52.53 L99.85,58.17 C99.61,58.22 93.91,59.39 86.2,60.3 C83.52,60.62 81.04,60.83 78.64,60.84 Z" fill="#9E9E9E"/>
  <path d="M85.53,55.29 C92.97,54.41 98.64,53.25 98.69,53.24 L99.71,58.2 C99.78,58.19 99.83,58.18 99.85,58.17 L98.69,52.53 C98.63,52.54 92.97,53.7 85.53,54.58 C80.94,55.12 77.27,55.33 73.5,54.68 C73.24,54.63 72.57,55.06 72.57,55.06 L72.58,55.11 C76.59,56.07 81.21,55.8 85.53,55.29 Z" fill="#E0E0E0"/>
  <path d="M73.87,43.81 C73.87,43.81 72.43,39.29 73.04,38.15 C73.65,37 76.03,35.7 79.55,37 C83.07,38.3 84.45,40.52 84.45,40.52 C84.45,40.52 81.7,43.35 78.67,44.12 C75.64,44.88 73.87,43.81 73.87,43.81 Z" fill="#424242"/>
  <path d="M70.95,45.4 C70.95,45.4 70.88,45.12 70.96,44.86 C70.96,44.86 76.62,45.84 87.51,44.4 C95.3,43.37 101.93,40.63 104.04,39.89 L104.16,40.4 L105.2,46.83 C105.28,47.34 104.98,47.83 104.48,47.99 C102.44,48.62 96.6,50.33 88.23,51.4 C80.44,52.4 74.98,52.23 73.05,52.17 C72.56,52.16 72.16,51.81 72.06,51.33 L70.95,45.4 Z" fill="#424242"/>
  <path d="M88.89,51.3 C89.47,50.59 89.94,49.47 89.92,47.71 C89.91,46.05 88.98,45.01 87.83,44.35 C87.72,44.37 87.61,44.38 87.5,44.4 C76.61,45.85 70.95,44.86 70.95,44.86 C70.88,45.12 70.94,45.4 70.94,45.4 L72.06,51.32 C72.15,51.8 72.56,52.15 73.05,52.16 C74.98,52.21 80.44,52.39 88.23,51.38 C88.46,51.36 88.67,51.33 88.89,51.3 Z" fill="#616161"/>
  <path d="M71.64,45.64 C72.29,45.73 75.1,46.44 87.96,44.73 C97.78,43.43 103.92,40.52 103.92,40.52 C103.92,40.52 104.35,40.04 103.7,39.32 C103.44,39.04 102.96,39.06 102.96,39.06 L103.06,39.6 C102.95,39.65 97.09,42.38 87.72,43.62 C81.2,44.49 77.09,44.67 74.79,44.67 C72.46,44.67 71.86,44.52 71.86,44.52 L71.8,43.93 C71.46,44.17 71.12,44.27 70.99,44.7 C70.86,45.11 71,45.55 71.64,45.64 Z" fill="#9E9E9E"/>
  <path d="M86.81,51.55 C87.97,51.41 89.3,50.75 89.48,48.67 C89.61,47.14 88.96,46.09 88.44,45.66 C87.41,44.81 85.58,45.03 85.57,45.03 L85.41,43.9 C85.51,43.89 87.94,43.48 89.35,44.69 C90.22,45.44 90.73,46.46 90.81,47.8 C90.91,49.36 90.45,50.21 89.61,50.88 C88.48,51.79 86.81,51.55 86.81,51.55 Z" fill="#9E9E9E"/>
  <path d="M100.79,54.64 C100.31,52.93 98.52,51.93 96.78,52.25 C95.14,52.54 93.58,52.86 91.17,53.22 C90.54,53.31 90.11,53.92 90.24,54.54 L90.3,54.8 C90.42,55.36 90.95,55.74 91.52,55.67 C93.54,55.42 95.3,55.07 95.33,55.06 C95.78,54.97 96.41,55.05 96.56,55.86 C96.68,56.49 96.3,57.01 95.64,57.14 C95.54,57.16 94,57.45 92.07,57.69 C91.46,57.76 91.03,58.32 91.1,58.93 L91.1,58.93 C91.18,59.55 91.75,59.98 92.37,59.89 C94.85,59.52 96.42,59.2 98.12,58.89 C100.08,58.55 101.34,56.59 100.79,54.64 Z" fill="#212121"/>
  <path d="M80,69.82 C78.54,69.83 77.11,69.76 75.68,69.59 C74.76,69.48 74.42,68.33 74.42,68.33 L73.93,64.04 C73.93,64.04 74.59,63.61 74.86,63.66 C78.63,64.31 82.3,64.11 86.89,63.56 C94.33,62.68 100,61.52 100.05,61.51 L101.21,67.15 C100.97,67.2 95.27,68.37 87.56,69.28 C84.89,69.6 82.41,69.81 80,69.82 Z" fill="#9E9E9E"/>
  <path d="M86.89,64.27 C94.33,63.39 100,62.23 100.05,62.22 L101.07,67.18 C101.14,67.17 101.19,67.16 101.21,67.15 L100.05,61.51 C99.99,61.52 94.33,62.68 86.89,63.56 C82.3,64.1 78.63,64.31 74.86,63.66 C74.6,63.61 73.93,64.04 73.93,64.04 L73.94,64.09 C77.96,65.05 82.58,64.79 86.89,64.27 Z" fill="#E0E0E0"/>
  <path d="M102.16,63.63 C101.68,61.92 99.89,60.92 98.15,61.24 C96.51,61.53 94.95,61.85 92.54,62.21 C91.91,62.3 91.48,62.91 91.61,63.53 L91.67,63.79 C91.79,64.35 92.32,64.73 92.89,64.66 C94.91,64.41 96.67,64.06 96.7,64.05 C97.15,63.96 97.78,64.04 97.93,64.85 C98.05,65.48 97.67,66 97.01,66.13 C96.91,66.15 95.37,66.44 93.44,66.68 C92.83,66.75 92.4,67.31 92.47,67.92 L92.47,67.92 C92.55,68.54 93.12,68.97 93.74,68.88 C96.22,68.51 97.79,68.19 99.49,67.88 C101.44,67.53 102.7,65.58 102.16,63.63 Z" fill="#212121"/>
  <path d="M100.2,74.58 A2.53 2.53 0 1 1 95.14,74.58 A2.53 2.53 0 1 1 100.2,74.58 Z" fill="#616161"/>
  <path d="M79.55,37 C76.03,35.7 73.66,37 73.04,38.15 C72.96,38.3 72.92,38.5 72.9,38.73 C73.92,37.92 75.35,37.75 76.62,38.03 C77.94,38.32 79.13,39.04 80.23,39.81 C81.16,40.47 82.07,41.17 83.05,41.75 C83.91,41.07 84.44,40.52 84.44,40.52 C84.44,40.52 83.07,38.3 79.55,37 Z" fill="#616161"/>
  <path d="M46.79,111.81 C63.9,110.14 64.52,100.93 77.32,100.95 C79.83,100.95 81.74,101.51 83.12,102.17 C85.24,103.18 87.66,103.28 89.85,102.44 C91.66,101.75 93.89,101.12 96.1,101.12 C105.93,101.11 110.53,109.7 110.53,109.7" fill="url(#SVGID_4_)"/>
</svg>
